img/work/work_logo-belvilla.svg

<?xml version="1.0" encoding="UTF-8" standalone="no"?>
<svg width="91px" height="39px" viewBox="0 0 91 39" version="1.1" xmlns="http://www.w3.org/2000/svg" xmlns:xlink="http://www.w3.org/1999/xlink">
    <!-- Generator: Sketch 39.1 (31720) - http://www.bohemiancoding.com/sketch -->
    <title>logo-belvilla</title>
    <desc>Created with Sketch.</desc>
    <defs></defs>
    <g id="Content-real" stroke="none" stroke-width="1" fill="none" fill-rule="evenodd">
        <g id="Work" transform="translate(-843.000000, -1520.000000)" fill="#222222">
            <g id="Group-3" transform="translate(799.000000, 1459.000000)">
                <g id="logo-belvilla" transform="translate(44.000000, 61.000000)">
                    <g id="Laag_1">
                        <path d="M89.8737624,35.0311727 L88.3871287,35.2112815 C84.3326733,36.2919347 79.7376238,36.2469075 75.4128713,36.2018803 C47.0316832,35.931717 30.0480198,33.410193 1.62178218,35.6165265 C0.810891089,35.6165265 0,36.6971796 0,37.2825334 C0,37.82286 0.810891089,38.3631865 1.62178218,38.3631865 C6.48712871,37.2825334 8.06386139,37.6877783 13.0193069,37.0573973 C41.4905941,35.3913904 61.4475248,40.0291935 89.9188119,37.82286 C90.729703,37.82286 90.729703,36.7422068 90.729703,36.156853 C90.729703,36.156853 90.6846535,35.2112815 89.8737624,35.0311727" id="Shape"></path>
                        <path d="M27.029703,24.0445324 C26.6693069,21.9732806 25.7683168,20.8926274 23.7861386,20.8926274 C21.2183168,20.8926274 20.4524752,22.9188521 20.4074257,24.0445324 L27.029703,24.0445324 L27.029703,24.0445324 Z M20.4074257,26.6110836 C20.5425743,29.1776348 21.8039604,30.3483424 24.0564356,30.3483424 C25.6782178,30.3483424 27.029703,29.3577437 27.2549505,28.4121722 L30.8589109,28.4121722 C29.7326733,31.9242949 27.2549505,33.410193 23.9212871,33.410193 C19.2361386,33.410193 16.3529703,30.2132608 16.3529703,25.6204849 C16.3529703,21.1627907 19.4163366,17.7857496 23.9212871,17.7857496 C28.9668317,17.7857496 31.399505,22.0183078 31.1292079,26.6110836 L20.4074257,26.6110836 L20.4074257,26.6110836 Z" id="Shape"></path>
                        <rect id="Rectangle-path" x="32.7509901" y="12.5625928" width="4.05445545" height="20.4873825"></rect>
                        <polygon id="Shape" points="47.9326733 33.0499753 43.3826733 33.0499753 38.2920792 18.2360218 42.5717822 18.2360218 45.7252475 28.367145 45.770297 28.367145 48.8787129 18.2360218 52.9331683 18.2360218"></polygon>
                        <rect id="Rectangle-path" x="61.5826733" y="12.5625928" width="4.05445545" height="20.4873825"></rect>
                        <rect id="Rectangle-path" x="68.9707921" y="12.5625928" width="4.05445545" height="20.4873825"></rect>
                        <path d="M80.3683168,28.8624443 C79.8727723,28.1420089 79.6024752,27.106383 79.6024752,25.8005938 C79.6024752,24.6298862 79.8277228,23.6392875 80.2331683,22.7837704 C80.7287129,21.8381989 81.4044554,21.3428996 82.3054455,21.3428996 C83.1613861,21.3428996 83.8371287,21.7031173 84.3326733,22.3785255 C84.8732673,23.1439881 85.1435644,24.1796141 85.1435644,25.4854033 C85.1435644,26.8362197 84.8732673,27.9168728 84.3326733,28.7273627 C83.8371287,29.4928253 83.1613861,29.853043 82.3054455,29.853043 C81.4945545,29.853043 80.8638614,29.5378525 80.3683168,28.8624443 M76.8544554,20.4873825 C75.5930693,21.9282533 74.9623762,23.7743691 74.9623762,25.8906482 C74.9623762,27.9619 75.5480198,29.6729342 76.7193069,30.9787234 C77.8905941,32.2845126 79.4222772,32.9599208 81.2693069,32.9599208 C82.8009901,32.9599208 84.1074257,32.4646215 85.2336634,31.51905 L85.2336634,32.6447303 L89.6485149,32.6447303 L89.6485149,18.3260762 L85.2336634,18.3260762 L85.2336634,19.6318654 C84.1975248,18.7313211 83.0262376,18.281049 81.7648515,18.281049 C79.7376238,18.281049 78.1158416,19.0014844 76.8544554,20.4873825" id="Shape"></path>
                        <rect id="Rectangle-path" x="54.7351485" y="18.2360218" width="4.05445545" height="14.8139535"></rect>
                        <rect id="Rectangle-path" x="54.7351485" y="12.5625928" width="4.05445545" height="4.50272143"></rect>
                        <path d="M6.3970297,24.2246413 C7.47821782,24.2246413 8.33415842,24.3597229 8.82970297,24.6298862 C9.68564356,25.0351311 10.0910891,25.7555666 10.0910891,26.8812469 C10.0910891,27.7817912 9.77574257,28.4571994 9.1,28.997526 C8.55940594,29.4027709 7.65841584,29.627907 6.3970297,29.627907 L5.31584158,29.627907 L5.31584158,24.2246413 L6.3970297,24.2246413 L6.3970297,24.2246413 Z M6.21683168,16.2548243 C7.65841584,16.2548243 8.1539604,16.389906 8.33415842,16.4799604 C8.96485149,16.7951509 9.28019802,17.3354775 9.28019802,18.1009401 C9.28019802,18.8664028 9.00990099,19.4967838 8.37920792,19.9920831 C7.74851485,20.4873825 6.84752475,20.7575458 5.63118812,20.7575458 L5.31584158,20.7575458 L5.31584158,16.2548243 L6.21683168,16.2548243 L6.21683168,16.2548243 Z M0.45049505,12.7877288 L0.45049505,33.0499753 L6.48712871,33.0499753 C8.87475248,33.0499753 10.6316832,32.7347848 11.8930693,32.1044038 C14.0554455,30.9787234 15.1816832,29.2676893 15.1816832,26.9713013 C15.1816832,24.7649678 14.1905941,23.1890153 12.2985149,22.2434438 C12.0282178,22.1083622 11.7128713,22.0183078 11.3975248,21.9282533 C13.1094059,20.9376546 14.010396,19.4967838 14.010396,17.5606136 C14.010396,15.8045522 13.2445545,14.498763 11.8029703,13.6432459 C10.8118812,13.0578921 9.1450495,12.7877288 6.75742574,12.7877288 L0.45049505,12.7877288 L0.45049505,12.7877288 Z" id="Shape"></path>
                        <path d="M65.5470297,3.87234043 C64.0153465,3.28698664 63.4747525,3.55714993 62.4386139,4.00742207 C61.3574257,4.45769421 40.3193069,16.1647699 40.3193069,16.1647699 C39.8237624,16.4349332 39.3732673,16.389906 38.9678218,16.1197427 C38.6975248,15.8946066 38.5173267,15.6244433 38.4272277,15.2642256 C38.3371287,14.9040079 38.4272277,14.5888174 38.6074257,14.2736269 C38.7425743,14.0935181 38.9227723,13.9584364 39.1029703,13.868382 L61.9430693,1.17070757 C63.2945545,0.405244928 63.4747525,0.405244928 64.150495,0.405244928 C64.7811881,0.405244928 65.4118812,0.675408214 66.3579208,1.17070757 L89.7386139,13.9134092 C89.9638614,14.0034636 90.0990099,14.1385453 90.2341584,14.3186541 C90.4594059,14.5888174 90.5044554,14.9490351 90.4143564,15.3092528 C90.3242574,15.6694706 90.1440594,15.9846611 89.8737624,16.1647699 C89.4683168,16.4799604 89.0178218,16.4799604 88.5222772,16.2097971 C88.5222772,16.2097971 66.9435644,4.412667 65.8623762,3.96239485 L65.5470297,3.87234043 L65.5470297,3.87234043 Z" id="Shape"></path>
                    </g>
                </g>
            </g>
        </g>
    </g>
</svg>

<svg width="91" height="39" viewBox="0 0 91 39" xmlns="http://www.w3.org/2000/svg"><title>logo-belvilla</title><g fill="#222" fill-rule="evenodd"><path d="M89.874 35.031l-1.487.18c-4.054 1.08-8.65 1.036-12.974.99-28.381-.27-45.365-2.79-73.791-.584C.81 35.617 0 36.697 0 37.283c0 .54.81 1.08 1.622 1.08 4.865-1.08 6.442-.675 11.397-1.306 28.472-1.666 48.429 2.972 76.9.766.81 0 .81-1.08.81-1.666 0 0-.044-.946-.855-1.126M27.03 24.045c-.36-2.072-1.262-3.152-3.244-3.152-2.568 0-3.334 2.026-3.379 3.152h6.623zm-6.623 2.566c.136 2.567 1.397 3.737 3.65 3.737 1.621 0 2.973-.99 3.198-1.936h3.604c-1.126 3.512-3.604 4.998-6.938 4.998-4.685 0-7.568-3.197-7.568-7.79 0-4.457 3.063-7.834 7.568-7.834 5.046 0 7.479 4.232 7.208 8.825H20.407zM32.751 12.563h4.054V33.05h-4.054zM47.933 33.05h-4.55l-5.09-14.814h4.279l3.153 10.131h.045l3.109-10.131h4.054zM61.583 12.563h4.054V33.05h-4.054zM68.971 12.563h4.054V33.05h-4.054zM80.368 28.862c-.495-.72-.766-1.756-.766-3.061 0-1.171.226-2.162.631-3.017.496-.946 1.171-1.441 2.072-1.441.856 0 1.532.36 2.028 1.036.54.765.81 1.8.81 3.106 0 1.351-.27 2.432-.81 3.242-.496.766-1.172 1.126-2.028 1.126-.81 0-1.441-.315-1.937-.99m-3.514-8.376c-1.26 1.441-1.892 3.287-1.892 5.404 0 2.07.586 3.782 1.757 5.088 1.172 1.306 2.703 1.98 4.55 1.98 1.532 0 2.838-.494 3.965-1.44v1.126h4.415V18.326h-4.415v1.306c-1.036-.9-2.208-1.351-3.47-1.351-2.026 0-3.648.72-4.91 2.206M54.735 18.236h4.054V33.05h-4.054zM54.735 12.563h4.054v4.503h-4.054zM6.397 24.225c1.081 0 1.937.135 2.433.405.856.405 1.261 1.126 1.261 2.251 0 .9-.315 1.576-.991 2.117-.54.405-1.442.63-2.703.63H5.316v-5.403h1.081zm-.18-7.97c1.441 0 1.937.135 2.117.225.63.315.946.855.946 1.62 0 .766-.27 1.397-.9 1.892-.631.495-1.532.766-2.749.766h-.315v-4.503h.9zM.45 12.788V33.05h6.037c2.388 0 4.145-.315 5.406-.946 2.162-1.125 3.289-2.836 3.289-5.133 0-2.206-.991-3.782-2.883-4.728-.27-.135-.586-.225-.901-.315 1.711-.99 2.612-2.431 2.612-4.367 0-1.756-.765-3.062-2.207-3.918-.991-.585-2.658-.855-5.046-.855H.45z"/><path d="M65.547 3.872c-1.532-.585-2.072-.315-3.108.135-1.082.45-22.12 12.158-22.12 12.158-.495.27-.946.225-1.351-.045a1.563 1.563 0 0 1-.54-.856c-.09-.36 0-.675.18-.99.135-.18.315-.316.495-.406l22.84-12.697C63.295.405 63.475.405 64.15.405c.631 0 1.262.27 2.208.766l23.38 12.742c.226.09.361.226.496.406.225.27.27.63.18.99-.09.36-.27.676-.54.856-.406.315-.856.315-1.352.045 0 0-21.578-11.797-22.66-12.248l-.315-.09z"/></g></svg>
